src/24x24/places/folder-gruvbox-mix-aqua-java.svg

<?xml version="1.0" encoding="UTF-8"?>
<svg width="24" height="24" version="1" xmlns="http://www.w3.org/2000/svg">
 <rect x="2" y="9.5" width="20" height="12" rx="1" ry="1" opacity=".2"/>
 <path d="m2 17c0 0.554 0.446 1 1 1h18c0.554 0 1-0.446 1-1v-11c0-0.554-0.446-1-1-1h-9c-1.5 0-2-2-3.5-2h-5.5c-0.554 0-1 0.446-1 1" fill="#477a5b"/>
 <rect x="2" y="8.5" width="20" height="12" rx="1" ry="1" opacity=".2"/>
 <rect x="4" y="7" width="16" height="8" rx="1" ry="1" fill="#DCE0BB"/>
 <rect x="2" y="9" width="20" height="12" rx="1" ry="1" fill="#8bba7f"/>
 <path d="m3 3c-0.554 0-1 0.446-1 1v0.5c0-0.554 0.446-1 1-1h5.5c1.5 0 2 2 3.5 2h9c0.554 0 1 0.446 1 1v-0.5c0-0.554-0.446-1-1-1h-9c-1.5 0-2-2-3.5-2z" fill="#DCE0BB" opacity=".1"/>
 <path d="m11.586 11s0.413 0.233 0.122 0.844c-0.441 0.921 0.406 1.132 0.406 1.132s-0.269-0.217 0.09-0.977c0.396-0.842-0.618-0.999-0.618-0.999zm1.6 0.92s-0.821 0.315-0.292 1.176c0.35 0.57-0.038 0.853-0.038 0.853s0.992-0.281 0.514-1.069c-0.431-0.712-0.184-0.96-0.184-0.96zm-2.365 0.023s-0.718 0.548-6e-3 1.221c0.47 0.448 0.162 0.836 0.162 0.836s0.891-0.566 0.247-1.186c-0.582-0.558-0.403-0.87-0.403-0.87zm0.156 2.057h-1.977l1 4h4l0.138-0.549c0.116 0.029 0.237 0.049 0.362 0.049 0.828 0 1.5-0.672 1.5-1.5 0-0.703-0.485-1.289-1.138-1.451l0.138-0.549h-4.024zm3.765 1.031c6e-3 1e-3 0.011 2e-3 0.017 3e-3 0.267 0.071 0.367 0.562 0.224 1.096-0.14 0.52-0.46 0.891-0.725 0.839z" fill="#39433D"/>
</svg>

<svg xmlns="http://www.w3.org/2000/svg" width="24" height="24" version="1">
 <rect style="opacity:0.2" width="20" height="12" x="2" y="9.5" rx="1" ry="1"/>
 <path style="fill:#477a5b" d="M 2,17 C 2,17.554 2.446,18 3,18 H 21 C 21.554,18 22,17.554 22,17 V 6 C 22,5.446 21.554,5 21,5 H 12 C 10.5,5 10,3 8.5,3 H 3 C 2.446,3 2,3.446 2,4"/>
 <rect style="opacity:0.2" width="20" height="12" x="2" y="8.5" rx="1" ry="1"/>
 <rect style="fill:#DCE0BB" width="16" height="8" x="4" y="7" rx="1" ry="1"/>
 <rect style="fill:#8bba7f" width="20" height="12" x="2" y="9" rx="1" ry="1"/>
 <path style="opacity:0.1;fill:#DCE0BB" d="M 3,3 C 2.446,3 2,3.446 2,4 V 4.5 C 2,3.946 2.446,3.5 3,3.5 H 8.5 C 10,3.5 10.5,5.5 12,5.5 H 21 C 21.554,5.5 22,5.946 22,6.5 V 6 C 22,5.446 21.554,5 21,5 H 12 C 10.5,5 10,3 8.5,3 Z"/>
 <path style="fill:#39433D" d="M 11.586,11 C 11.586,11 11.999,11.233 11.708,11.844 11.267,12.765 12.114,12.976 12.114,12.976 12.114,12.976 11.845,12.759 12.204,11.999 12.6,11.157 11.586,11 11.586,11 Z M 13.186,11.92 C 13.186,11.92 12.365,12.235 12.894,13.096 13.244,13.666 12.856,13.949 12.856,13.949 12.856,13.949 13.848,13.668 13.37,12.88 12.939,12.168 13.186,11.92 13.186,11.92 Z M 10.821,11.943 C 10.821,11.943 10.103,12.491 10.815,13.164 11.285,13.612 10.977,14 10.977,14 10.977,14 11.868,13.434 11.224,12.814 10.642,12.256 10.821,11.944 10.821,11.944 Z M 10.977,14 H 9 L 10,18 H 14 L 14.138,17.451 C 14.254,17.48 14.375,17.5 14.5,17.5 15.328,17.5 16,16.828 16,16 16,15.297 15.515,14.711 14.862,14.549 L 15,14 H 10.976 Z M 14.742,15.031 C 14.748,15.032 14.753,15.033 14.759,15.034 15.026,15.105 15.126,15.596 14.983,16.13 14.843,16.65 14.523,17.021 14.258,16.969 Z"/>
</svg>
